X:0726
T:"Nolan The Soldier"   (jig)     0726
C:after Chief  F. O'Neill
B:O'Neill's Music Of Ireland (The 1850) Lyon & Healy, Chicago, 1903 edition
Z:FROM O'NEILL'S TO NOTEWORTHY, FROM NOTEWORTHY TO ABC, MIDI AND .TXT BY VINCE
BRENNAN June 2003 (HTTP://WWW.SOSYOURMOM.COM)
I:abc2nwc
M:6/8
L:1/8
K:D
D2F A2A|BGB A2F|GFG E2G|FEF D3|
D2F A2A|BGB A2A|Bcd ecA|B2c d2||
(d/2e/2)|fgf fgf|ecA Ace|fgf fgf|gfg e2(d/2e/2)|
fgf fgf|ecA Ace|Bcd ecA|B2c d2zB2|]
